X:55
T:Polska efter Bengt Bixo
T:(SvL Jämtland 55)
R:Polska
O:Mörsil, Jämtland
S:Bengt Bixo
B:Svenska Låtar Jämtland
Z:Till abc Jonas Brunskog
M:3/4
L:1/8
K:A
E>G (B/d/)B/G/ (B/d/)B/G/|B>A (3c(ec) (3A(Bc)|(3d(eg) (3f(e^d) e>c|(3B(GB) (3A(cA) E2-|
E>C E/=G/E/C/ E/G/E/C/|EA (3c(ec) (3A(Bc)|(3d(eg) (3f(ed) (3c(BA)|(GB) A4:|
|:(fg) a2 cd|(3e(fe) (3d(Bd) c>d|e>f (3d(Bd) (3c(Ac)|(3B(GB) (3A(cA) [EB]2|
(3e(fg) ae cd|(3e(fe) (3d(Bd) c>d|e>a (3f(ed) c>A|(GB) A4:|

